!!!!SEGMENT: 008-1-Sm-002-violino.krn
!!!COM: Chopin, Fryderyk
!!!OTL: Trio
!!!OPS: Op. 8
!!!PTL: Premier Trio | pour Piano, Violon et Violoncelle
!!!OMV: 2
!!!PPR: M. Schlesinger
!!!PPP: Paris
!!!NIFC-rismID: 300605222
!!!NIFC-shelfmark: PL-Wbfc 2213/n
!!!OMD: M.M. [half-note] = 69.
!!!OMD: Vivace.
**kern	**dynam
*I"SCHERZO.	*
*staff1	*
*clefG2	*
*kcancel	*
*k[f#]	*
*G:	*
*M3/4	*
*>A	*>A
!	!LO:DY:rj
!	!LO:HP:a
(<4e	p>
=2	=2
4d	.
4c#X	.
4cn	]
=3	=3
4B	.
4B-X	.
4A	.
=4	=4
2G)	.
4g (<4Bny	.
=5	=5
4f# 4c	.
4g`< 4B)	.
(>4d	.
=6	=6
4g	.
4a	.
4b/	.
=7	=7
2g	.
4a	.
=8	=8
2b	.
.	.
8ccL	.
8bJ	.
=9	=9
(>4a)	.
4b/	.
4e	.
=10	=10
4a\	.
4b	.
4cc)	.
!!LO:LB:g=original
=11	=11
(>2a^<	.
4b	.
=12	=12
4.cc	.
8dd	.
4ee	.
=13	=13
4.a)	.
8r	.
4r	.
=14	=14
(<2.d^<	.
=15	=15
4g)`<	.
4r	.
4r	.
=16	=16
4r	.
(<2e^<	.
=17	=17
4a)	.
4r	.
4r	.
=18	=18
(>8eL	.
8d#X	.
8e	.
8f#	<
8g	.
8aJ	.
=19	=19
8bL	.
.	[
8cc	.
8ee	>
8dd	.
8b	.
8gJ)	]
=20	=20
(>2e	.
4cc	.
=21	=21
2d	.
[>4b)	<
!!LO:LB:g=original
=22	=22
4b]	[
4g	.
4f#X	.
=23	=23
2e^<	.
(<4g	.
=24	=24
4d)	.
(>\8c#XL	<
8d	[
8ccn	>
8bJ)	]
=25	=25
!!LO:TX:a:B:t=1|a.
*>A1	*>A1
4g`<	.
4r	.
=26:|!	=26:|!
!!LO:TX:a:B:t=2|a.
*>A2	*>A2
4g	.
4r	.
4b	.
=27!|:	=27!|:
*>B	*>B
(<4a	>
4g#X	.
4gn	]
=28	=28
4f#	.
4fn	.
4e	.
=29	=29
4e-X	.
4d)	.
(<4en	.
=30	=30
4f#X	.
4g)	.
4r	.
=31	=31
4g#X`<	ff
4a`<	.
4r	.
!!LO:LB:g=original
=32	=32
(<4a#X	p
4b/)	.
(>8dd#XL	.
8bJ	.
=33	=33
2f#	.
4a#X	.
=34	=34
4b)	.
4r	.
4b	.
=35	=35
2cc^<	.
[>4b	.
=36	=36
4b]	.
4a	.
4g	.
=37	=37
(<8f#L	.
8e	.
8d#X	.
8e	.
8g	.
8f#J)	.
=38	=38
(<4e	.
4d#X	.
4b/)	.
=39	=39
2cc^<	.
(<4b	.
=40	=40
8aL	.
8g#X	.
8b	.
8aJ	.
4gn)^<	.
=41	=41
(<8f#L	.
8e	.
8d#X	.
8e	.
8G	.
8AJ	.
!!LO:LB:g=original
=42	=42
8B)	.
16r	.
16g#	.
[<2f#	>
=43	=43
4f#]	]
!	!LO:DY:a
.	p
[2f#	>
=44	=44
!	!LO:DY:a
4f#]	]pp
4r	.
4r	.
=45	=45
4r	.
!LO:TX:a:t=pizz&colon;	!
.	.
4a#X'< 4e	.
4a#'< 4e	.
=46	=46
8b 8d#X	.
8r	.
!LO:TX:a:t=arco.	!
(<2g^<	.
=47	=47
4f#	.
4cc#X/	.
4a#X/	.
=48	=48
2b)^<	.
(<8d#XL	.
8g#XJ	.
=49	=49
4f#)	.
4r	.
!LO:TX:a:t=pizz&colon;	!
4a#X'< 4e	.
=50	=50
4b'< 4d#X	.
4r	.
4r	.
!!LO:LB:g=original
=51	=51
4r	.
!LO:TX:a:t=arco.	!
(<2f#	.
=52	=52
4b)	.
4r	.
4r	.
=53	=53
4r	.
!	!LO:DY:rj
(<2f#	p
=54	=54
4b)	.
4r	.
4r	.
=55	=55
2.rdd	.
=56	=56
2.rdd	.
=57	=57
2.rdd	.
=58	=58
2.rdd	.
=59	=59
2.rdd	.
=60	=60
2.rdd	.
=61	=61
4r	.
4r	.
(<4d	.
=62	=62
4g	.
4a	.
4b/	.
=63	=63
2g	.
4a)	.
=64	=64
(>2b	.
.	.
8ccL	.
8bJ	.
=65	=65
4a/	.
4b\)	.
.	.
!LO:TX:t=P:the slur ends up:problem	!
(<4e	.
!!LO:LB:g=original
=66	=66
4a\	.
4b\	.
4cc	.
=67	=67
2a^<\	.
4b	.
=68	=68
4.cc	.
8dd	.
4ee	.
=69	=69
4.a/)	.
8r	.
4r	.
=70	=70
(<2.d^<	.
=71	=71
4g)	.
4r	.
4r	.
=72	=72
4r	.
(<2e^<	.
=73	=73
4a)	.
4r	.
4r	.
=74	=74
(>8eL	<
8d#X	.
8e	.
8f#	.
8g	.
8aJ	[
=75	=75
8bL	.
8cc	.
8ee	>
8dd	.
8b	]
8gJ)	.
!!LO:LB:g=original
=76	=76
(>2e	.
4cc	.
=77	=77
2d	.
[>4b)	<
=78	=78
4b]	[
4g	.
4f#X	.
=79	=79
2e^<	.
4g	.
=80	=80
4d	.
(>8c#XL	<
8dJ	[
8ccnL	>
8bJ)	]
=81	=81
!!LO:TX:a:B:t=1|a.
*>B1	*>B1
4g	.
4r	.
4b	.
=:|!	=:|!
!!LO:TX:a:B:t=2|a.
*>B2	*>B2
!LO:TX:t=Fine.	!
4g	.
4r	.
!!LO:LB:g=original
==82	==82
*>C	*>C
*I"TRIO.	*
*M3/4	*
*k[]	*
(<8aL	.
8gJ	.
=83	=83
!LO:TX:a:t=dolce.	!
4f	.
8gL	.
8f	.
8e	.
8fJ	.
=84	=84
4e)	.
(>\8gL	.
8ccJ	.
4ee	.
=85	=85
4dd	.
8eeL	>
8dd	.
8b	.
8gJ	]
=86	=86
[>2.gg^<)	.
.	>
=87	=87
2gg]	.
4r	.
=88	=88
2.rdd	.
=89	=89
2.rdd	.
=90	=90
!	!LO:DY:rj
2d^>	fz
8dL	.
8eJ	.
=91	=91
4f	.
(<8eL	.
8f	.
8g	.
8fJ	.
=92	=92
4e)	.
(>8aL	.
8ccJ	.
4ee	.
!!LO:LB:g=original
=93	=93
4dd	.
8eeL	>
8dd	.
8cc	.
8aJ)	]
=94	=94
2dd	.
4g	.
=95	=95
(>4.g	.
8eeL	.
8dd	.
8eeJ	.
=96	=96
4cc	.
8bL	.
8a	.
8g)	.
8f#XJ	.
=97	=97
4.g	.
(>8eeL	.
8dd	.
8eeJ	.
=	=
4cc)	.
4r	.
=98:|!|:	=98:|!|:
!	!LO:DY:rj
(<8eL	ff
8fJ	.
=99	=99
8g)	.
8r	.
4r	.
4r	.
=100	=100
4r	.
4r	.
(<8GL	.
8AJ	.
=101	=101
4B-X)	.
4r	.
4r	.
!!LO:LB:g=original
=102	=102
4r	.
4b-X 4e 4G	.
4b- 4d 4G	.
=103	=103
4b-X 4e 4G	.
4r	.
4r	.
=104	=104
4r	.
4r	.
(<8gL	.
8aJ	.
=105	=105
4b-X`>)	.
4r	.
(<8GL	.
8AJ	.
=106	=106
4B-X)	.
4r	.
(<4A#X	.
=107	=107
4Bn)	.
4r	.
4r	.
=108	=108
4r	.
4r	.
(<8AL	.
8BJ	.
=109	=109
4c)	.
4r	.
4r	.
=110	=110
4r	.
!	!LO:DY:rj
4dd#X\`> 4f#X\	f
4ee\`> 4a\ 4e\	.
=111	=111
4ff#X\`> 4a\ 4d#X\	.
4r	.
4r	.
!!LO:LB:g=original
=112	=112
4r	.
4r	.
(<8aL	.
8bJ	.
=113	=113
4cc)	.
.	.
4r	.
(<8AL	.
8BJ	.
=114	=114
2c)	.
4B	.
=115	=115
(<4.B	.
8gL	.
8f#X	.
8gJ)	.
=116	=116
4e	.
4r	.
4r	.
=117	=117
(<4.B	.
!	!LO:DY:a:rj
8gL	pp
8f#X	.
8gJ	.
=118	=118
4e)	.
4r	.
4r	.
=119	=119
(>4.dd	>
8bL	.
8dd	]
8aJ	.
=120	=120
4g)	.
4r	.
4r	.
!!LO:LB:g=original
=121	=121
!LO:TX:t=poco rallen&colon;	!
(>8ddL	.
8cc#X	.
!	!LO:HP:a
8ee	>
8dd	.
8b	.
8aJ	]
=122	=122
2.g)	.
=123	=123
!LO:TX:t=a tempo	!
(<4f	.
8gL	.
8f	.
8e	.
8fJ)	.
=124	=124
4e	.
(>\8gL	.
8ccJ	.
4ee	.
=125	=125
4dd	.
8eeL	>
8dd	.
8b	]
8gJ)	.
=126	=126
[>2.gg^<	.
.	>
=127	=127
2gg]	.
4r	.
=128	=128
2.rdd	.
=129	=129
2.rdd	.
=130	=130
2d	.
8dL	.
8eJ	.
!!LO:LB:g=original
=131	=131
4f	.
(<8eL	.
8f	.
8g	.
8fJ	.
=132	=132
4e)	.
(>8aL	.
8ccJ	.
4ee	.
=133	=133
4dd	.
8eeL	>
8dd	.
8cc	.
8aJ	]
=134	=134
2dd)	.
4g	.
=135	=135
4.g	.
8eeL	.
8dd	.
8eeJ	.
=136	=136
(<4cc	.
8bL	.
!LO:TX:t=Scherzo da Capo al Fin.	!
8a	.
8g	.
8f#XJ)	.
=137	=137
4.g	.
8eeL	.
8dd	.
8eeJ	.
=138	=138
4cc	.
4r	.
=:|!	=:|!
*-	*-
!!!system-decoration: s1,s2{(s3,s4)}
!!!RDF**kern: > = above
!!!RDF**kern: < = below
!!!RDF**dynam: > = "dim:" fontstyle="normal"
!!!ENC: Jędrzej Mróz
!!!END: 2019-10-06
!!!EED: Mateusz Mrugas
!!!EST: 2019-10-13
!!!rism-genre: Trio
!!!rism-key: G minor
!!!rism-opus: op.  8
!!!rism-title: Trio in G minor op.  8
!!!rism-permalink: https://opac.rism.info/search?id=300605222&View=rism
